X: 1715
T: Sen Sanki Baharın Gülüsün
C: Musa Süreyya Bey
O: Turkey
F: http://compmusic.upf.edu/node/140
N: huzzam--sarki--senginsemai--sen_sanki_baharin--musa_sureyya_bey
N: makam= huzzam
N: form= sarki
N: usul= senginsemai = 6/4
M: 6/4
L: 1/16
K: C _1/4B _3/4e ^3/4f 
Q: 1/4=66
%%MIDI tuningsystem comma53
B3c d2e2 fg/a/gf feed d2de dedc  | \
w:  ARANAĞME  | 
defg a2gf f3e feed d8  | 
w:   | 
f2g2 a2b2 c'2d'2 c'_bag f2e2 d2c2  | \
w:   | 
Bcde f2ed d3c dccB B8  | 
w:   | 
B3c d2e2 fg/a/gf feed d2de dedc  | \
w:  ARANAĞME  | 
defg a2gf f3e feed d8  | 
w:   | 
f2g2 a2b2 c'2d'2 c'_bag f2e2 d2c2  | \
w:   | 
Bcde f2ed d3c dccB B8  | 
w:   | 
c4 d4 d4 d4 e2f2 e2d2  | defg a2g2 gf2e feed d8  | 
w:  Sen  san ki  ba ha  |  rın  *  *  *  *  *  gü *  *  lü *  *  *  sün   | 
f2g4f2 g2f2 g2a2 c'_bag feed  | d8 dedc dcBc d3e fga2  | 
w:  şen  *  *  çi *  çe *  ğim  |  sin  SAZ  | 
a3g g3f f3e e2d2 e2f2 e2d2  | defg a2gf f3e feed d8  | 
w:  Sen  *  her  *  ge *  ce  *  rû  |  ya *  *  *  *  *  *  ma  *  gi *  *  *  ren   | 
gfg=e d3c B3A G4 B2cd dccB  | B3c d2e2 aggf feed d3e fga2  | 
w:  göz *  *  *  *  *  be *  be ğim  |  sin  SAZ  | 
a3g g3f f3e e2d2 e2f2 e2d2  | defg a2gf f3e feed d8  | 
w:  Sen  *  her  *  ge *  ce  *  rû  |  ya *  *  *  *  *  *  ma  *  gi *  *  *  ren   | 
gfg=e d3c B3A G4 B2cd dccB  | B4 b4 ^a2b2 c'2c'b b8  | 
w:  göz *  *  *  *  *  be *  be ğim  |  sin  SAZ  | 
b4 b4 b4 d'4 c'2d'c' b^ab2  | ^abc'4b=a a3g aggf f8  | 
w:  Sen  şim di  u zak  |  lar *  *  *  *  da  *  gü *  *  *  len   | 
f2g4f2 g2f2 g2a2 c'_bag feed  | d8 dedc dcBc d3e fga2  | 
w:  bir  *  *  me *  le *  ğim  |  sin  SAZ  | 
a3g g3f f3e e2d2 e2f2 e2d2  | defg a2gf f3e feed d8  | 
w:  Sen  *  her  *  ge *  ce  *  rû  |  ya *  *  *  *  *  *  ma  *  gi *  *  *  ren   | 
gfg=e d3c B3A G4 B2cd dccB  | B3c d2e2 aggf feed d3e fga2  | 
w:  göz *  *  *  *  *  be *  be ğim  |  sin  SAZ  | 
a3g g3f f3e e2d2 e2f2 e2d2  | defg a2gf f3e feed d8  | 
w:  Sen  *  her  *  ge *  ce  *  rû  |  ya *  *  *  *  *  *  ma  *  gi *  *  *  ren   | 
gfg=e d3c B3A G4 B2cd dccB  | B4 |
w:  göz *  *  *  *  *  be *  be ğim  |  sin   | 


